X: 3
T: The Boys of Wexford v.1
P: piffero primo a0629
O: trad Irish
%R: march
F: http://ancients.sudburymuster.org/mus/sng/pdf/boysofwexfordC0.pdf
Z: 2020 John Chambers <jc:trillian.mit.edu>
M: 2/4
L: 1/8
K: G
D |\
G3  A | GF ED | d3 e | d2 c2 | B2 G2 | BA GF | E4 | F2 D2 ||\
G3  A | GF ED | d3 e | d2 c2 | B2 G2 | BA GF | G4-| G2 d2 |]
e2 c2 | g3  e | d3 c | B2 d2 | c2 B2 | A2 G2 | E4 | F2 D2 ||\
G3  A | GF ED | d3 e | d2 c2 | B2 G2 | BA GF | G4-| G3    |]


